X: 1017
T:The Glen Cottage #1 (A7)
N: page A7
N: hexatonic
R:polka
M:2/4
L:1/8
K:Ador
Q:1/4=60
d |: "Am" eA Bd | "Am" e/f/e/d/ "G" Bd | "Am" eA BA |\
 "G" G>A Bd | "Am" eA Bd |
 "Am" e/f/e/d/ "G" Bd | "Em" ea "G" e/d/e/d/ |1 "Am" BA A (3B/c/d/ :|2\
 "Am" BA A2 |: "Am" e2 ef/g/ |
 ae fe | "G" d2 de/f/ | "D" ge fd | "Am" e2 ef/g/ |\
 ae fe | "Em" ea "G" e/f/e/d/ | "Am" BA A2 :|
